X: 1
T: Turtle in the Grass
C: Ariel Friedman
R: reel
Z: 2013 John Chambers <jc:trillian.mit.edu>
S: printed page from Debby Knight at RJ practice
M: C|
L: 1/8
K: D
zdc |\
"D"B2A2 F3A | "D"E2D2- D2dc | "D"B2A2 FA-A2 | "G"B6 dc |
"D"B2A2 F3A | "G"E2D2 "(Em)"B,2A,B, | "D"DA,DF "A7"E2E2 | "D"D4 z :|
|: DEF |\
"G"G2A2 "A"B3A | "D"E2D2- DDEF | "G"G2A2 "Em"Bd-d2 | "A"c3e cAEF |
"G"G2A2 "A"B3A | "D"E2D2 "G"B,2A,B, | "D"DA,DF "A7"E2E2 | "D"D4 z :|

%%sep 1 1 500

